Catalina-dark/actions/22/kdenlive-zone-end.svg

<svg xmlns="http://www.w3.org/2000/svg" viewBox="0 0 22 22">
  <defs id="defs3051">
    <style type="text/css" id="current-color-scheme">
      .ColorScheme-Text {
        color:#f2f2f2
      }
      </style>
  </defs>
 <path 
     style="fill:currentColor;fill-opacity:1;stroke:none"      
	 class="ColorScheme-Text"
        d="M 11 3 C 6.568 3 3 6.568 3 11 C 3 15.432 6.568 19 11 19 C 15.432 19 19 15.432 19 11 C 19 6.568 15.432 3 11 3 z M 9.859375 7.0019531 L 12.140625 7.0019531 C 12.49491 7.0019531 12.78125 7.2882933 12.78125 7.6425781 L 12.78125 14.357422 C 12.78125 14.711707 12.49491 14.998047 12.140625 14.998047 L 9.859375 14.998047 C 9.5050688 14.998047 9.21875 14.711707 9.21875 14.357422 C 9.21875 14.003137 9.5050902 13.714844 9.859375 13.714844 L 11.498047 13.714844 L 11.498047 8.2851562 L 9.859375 8.2851562 C 9.5050902 8.2851562 9.21875 7.9968629 9.21875 7.6425781 C 9.21875 7.2882933 9.5050902 7.0019531 9.859375 7.0019531 z "
     />
</svg>

<svg width="22" height="22" viewBox="3 3 16 16" xmlns="http://www.w3.org/2000/svg">
<defs>
<style id="current-color-scheme" type="text/css">.ColorScheme-Text {
        color:#f2f2f2
      }</style>
</defs>
<path class="ColorScheme-Text" d="m11 3c-4.432 0-8 3.568-8 8s3.568 8 8 8 8-3.568 8-8-3.568-8-8-8zm-1.1406 4.002h2.2812c0.35428 0 0.64062 0.28634 0.64062 0.64062v6.7148c0 0.35428-0.28634 0.64062-0.64062 0.64062h-2.2812c-0.35431 0-0.64062-0.28634-0.64062-0.64062s0.28634-0.64258 0.64062-0.64258h1.6387v-5.4297h-1.6387c-0.35428 0-0.64062-0.28829-0.64062-0.64258s0.28634-0.64062 0.64062-0.64062z" fill="currentColor"/>
</svg>
